X:1
T:Hino oficial da cidade do Moreno
T:Hino oficial da cidade do Moreno
T:Melodia: Dy Portela
T:Letra: Sevy Rocha
C:Dy Portela
Z:Sevy Rocha
L:1/8
Q:1/4=80
M:4/4
K:Ab
V:1 treble nm="Piano" snm="Pno."
V:1
"^\n" z4"^Introdução" defg | a2 a>a g2 g>g | a2 c'2 z2 c'b | a2 ab c'bag | f2 f2 z2 fe | %5
w: |||||
w: |||||
w: |||||
 d2 de fgab | c'2 c'2 z2 ab | c'2 c'>c' b2 b>b | a2 a2 a2 a2 |: A4 E2 C>E | A2 A2 z2 AG | %11
w: ||||1)Ter- ra de tra-|ba- lho de pro-|
w: ||||2)Bro- to de en-|ge- nho de Ca-|
w: ||||3)Po- vo de- di-|ca- do a ser-|
 F2 F2 G2 A2 | E4 z2 F>E | D2 G4 F>E | E2 A4 GA | B2 B2 G2 E2 | A4 z4 ||"^estribilho" c2 B3 AGF | %18
w: gres- soE de la-|bor On- deIm-|pe- ra con- fi-|an- ça de ter|paz e ter va-|lor|Sal- ve, be- la ci-|
w: ten deÉs tra- di-|ção Da no-|bre- za tens o-|ri- gem teu em-|ble- maÉ um bra-|são||
w: vir sem re- lu-|tar Tem por|le- ma: O tra-|ba- lho vai Mo-|re- noA ca- mi-|nhar||
 A2 E2 z2 F>E | D2 E2 F2 A2 | E2 E2 z2 F>E | D2 G4 F>E | E2 A4 GA | B2 A2 G2 F2 | E2 A2 z EFE | %25
w: da- de! Tens pas-|sa- do que nos|hon- ra E com|teus mon- tes en-|si- nas ser Mo-|re- no va- lo-|ro- sa Ter- ra das|
w: |||||||
w: |||||||
 B4 G2 B2 | B2 A2"^instrumental" z AG_G | F4 z BAF | EDCB, A,GAB | c2 c>c B2 B>B | A2 A2 A2 A2 :| %31
w: ver- des co-|li- nas * * *|||||
w: ||||||
w: ||||||

